img/0-1.svg

<svg width="83" height="48" viewBox="0 0 83 48" fill="none" xmlns="http://www.w3.org/2000/svg">
<rect width="83" height="48" fill="#FBFBFB"/>
<path d="M58.1981 14V34H55.3389V16.8591H51.908V14H58.1981Z" fill="black"/>
<path d="M44.5857 29.8298H48.7558V34H44.5857V29.8298Z" fill="black"/>
<path d="M39.7183 31.1409C39.7183 31.5314 39.6439 31.9033 39.4951 32.2566C39.3463 32.6006 39.1418 32.9028 38.8814 33.1632C38.6211 33.4235 38.3143 33.6281 37.9609 33.7768C37.6169 33.9256 37.2496 34 36.8591 34H26.8591C26.4686 34 26.0967 33.9256 25.7434 33.7768C25.3993 33.6281 25.0972 33.4235 24.8368 33.1632C24.5765 32.9028 24.3719 32.6006 24.2232 32.2566C24.0744 31.9033 24 31.5314 24 31.1409V16.8591C24 16.4686 24.0744 16.1013 24.2232 15.7573C24.3719 15.404 24.5765 15.1018 24.8368 14.8508C25.0972 14.5904 25.3993 14.3859 25.7434 14.2371C26.0967 14.079 26.4686 14 26.8591 14H36.8591C37.2496 14 37.6169 14.079 37.9609 14.2371C38.3143 14.3859 38.6211 14.5904 38.8814 14.8508C39.1418 15.1018 39.3463 15.404 39.4951 15.7573C39.6439 16.1013 39.7183 16.4686 39.7183 16.8591V31.1409ZM26.8591 16.8591V31.1409H36.8591V16.8591H26.8591Z" fill="black"/>
<path fill-rule="evenodd" clip-rule="evenodd" d="M39.7782 17.1178L27.8245 33.3748L25.561 31.7105L37.5147 15.4534L39.7782 17.1178Z" fill="black"/>
</svg>

<?xml version="1.0" encoding="UTF-8"?>
<svg id="Layer_1" xmlns="http://www.w3.org/2000/svg" version="1.1" viewBox="0 0 83 48">
  <!-- Generator: Adobe Illustrator 29.5.1, SVG Export Plug-In . SVG Version: 2.1.0 Build 141)  -->
  <defs>
    <style>
      .st0 {
        fill-rule: evenodd;
      }

      .st0, .st1 {
        fill: #121212;
      }

      .st2 {
        fill: #f7f7f7;
      }
    </style>
  </defs>
  <rect class="st2" y="0" width="83" height="48"/>
  <path class="st1" d="M58.2,14v20h-2.86v-17.14h-3.43v-2.86h6.29Z"/>
  <path class="st1" d="M44.59,29.83h4.17v4.17h-4.17v-4.17Z"/>
  <path class="st1" d="M39.72,31.14c0,.39-.07.76-.22,1.12-.15.34-.35.65-.61.91s-.57.46-.92.61c-.34.15-.71.22-1.1.22h-10c-.39,0-.76-.07-1.12-.22-.34-.15-.65-.35-.91-.61-.26-.26-.46-.56-.61-.91-.15-.35-.22-.73-.22-1.12v-14.28c0-.39.07-.76.22-1.1.15-.35.35-.66.61-.91.26-.26.56-.46.91-.61.35-.16.73-.24,1.12-.24h10c.39,0,.76.08,1.1.24.35.15.66.35.92.61.26.25.46.55.61.91.15.34.22.71.22,1.1v14.28ZM26.86,16.86v14.28h10v-14.28h-10Z"/>
  <path class="st0" d="M39.78,17.12l-11.95,16.26-2.26-1.66,11.95-16.26,2.26,1.66Z"/>
</svg>
